!!!OTL: ICH HABE MEIN FEINSLIEBCHEN
!!!ARE: Europa, Mitteleuropa, Deutschland
!!!SCT: E0536
!!!YEM: Copyright 1995, estate of Helmut Schaffrath.
**kern
*ICvox
*Ivox
*M3/4
*k[b-]
*F:
{8c
=1
8f
8a
4cc
4a
=2
8cc
8b-
4g
8r}
{8f
=3
8e
8f
4g
4b-
=4
8dd
8cc
4a
8r}
{8c
=5
8f
8f
4a
4cc
=6
[2ff
8ff]
{8dd
=7
8cc
8b-
4cc
4g
=8
2f
8r}
==
!!!AGN: Liebes - Lied
!!!ONB: ESAC (Essen Associative Code) Database: ERK1
!!!AMT: simple triple
!!!AIN: vox
!!!EED: Helmut Schaffrath
!!!EEV: 1.0
*-
